!!!SOCIAL_FUNCTION:	songs of war
!!!PDT:	1913
!!!OTL: No_18_Song_of_the_Leader.krn
!!!REG: Great_Lakes
!!!LANG: Non-Tone
!!!LING_GROUP: Algonquin
**kern	**kern
*staff2	*staff1
*clefF4	*clefG2
*k[b-e-a-d-]	*k[b-e-a-d-]
*M2/4	*M2/4
4r	16e-/LL
.	16e-/J
.	8f/J
=1	=1
4GG^/	4e-/
4GG^/	8c/L
.	8c/J
=2	=2
4GG^/	4c/
4GG^/	8c/L
.	8c/J
=3||	=3||
*M3/4	*M3/4
2.r	4.c/
.	16e-/LL
.	16e-/JJ
.	4e-/
=4||	=4||
*M2/4	*M2/4
2r	4e-/
.	8c/L
.	8c/J
=5	=5
2r	4c/
.	8c/L
.	8B-/J
=6	=6
2r	2c/
=7	=7
2r	4c/
.	8f/L
.	8f/J
=8	=8
2r	4f/
.	8g/L
.	8f/J
=9	=9
2r	4e-/
.	8c/L
.	8B-/J
=10||	=10
*M3/4	*clefF4
--d	=
*	*clefF4
*	*M3/4
2.r	4.A-\
.	16B-\LL
.	16B-\JJ
.	4B-\
=11||	=11||
*M2/4	*M2/4
2r	4A-\
.	8F\L
.	8F\J
=12	=12
2r	4F\
.	8F\L
.	8F\J
=13||	=13||
*M3/4	*M3/4
2.r	4.F\
.	16A-\LL
.	16A-\JJ
.	4A-\
=14||	=14||
*M2/4	*M2/4
2r	4A-\
.	8F\L
.	8F\J
=15	=15
2r	4F\
.	8F\L
.	8F\J
=16	=16
2r	[2F\
=17	=17
2r	4F\]
.	16F\LL
.	16F\J
.	8E-\J
=18	=18
2r	4E-\
.	8C/L
.	8C/J
=19	=19
2r	4C/
.	8C/L
.	8C/J
=20	=20
2r	2C/
==	==
*-	*-
